svg/emoji_u1f53c.svg

<?xml version="1.0" encoding="UTF-8"?>
<svg width="128" height="128" enable-background="new 0 0 128 128" xmlns="http://www.w3.org/2000/svg"><linearGradient id="a" x1="64" x2="64" y1="4.25" y2="123.91" gradientUnits="userSpaceOnUse"><stop stop-color="#FFAB40" offset="0"/><stop stop-color="#FF6D00" offset="1"/></linearGradient><path d="m116 124h-104c-4.42 0-8-3.58-8-8v-104c0-4.42 3.58-8 8-8h104c4.42 0 8 3.58 8 8v104c0 4.42-3.58 8-8 8z" fill="url(#a)"/><g opacity=".2"><path d="m116 7c2.76 0 5 2.24 5 5v104c0 2.76-2.24 5-5 5h-104c-2.76 0-5-2.24-5-5v-104c0-2.76 2.24-5 5-5h104m0-3h-104c-4.42 0-8 3.58-8 8v104c0 4.42 3.58 8 8 8h104c4.42 0 8-3.58 8-8v-104c0-4.42-3.58-8-8-8z" fill="#424242"/></g><g opacity=".2"><path d="m64 36c0.9 0 1.79 0.45 2.3 1.34l29.18 50.69c1.01 1.77-0.27 3.97-2.3 3.97h-58.36c-2.04 0-3.31-2.2-2.3-3.97l29.18-50.69c0.51-0.89 1.4-1.34 2.3-1.34m0-3c-2.05 0-3.89 1.06-4.91 2.85l-29.17 50.68c-1.02 1.78-1.01 3.89 0.01 5.65s2.85 2.82 4.89 2.82h58.36c2.04 0 3.87-1.05 4.89-2.82 1.02-1.76 1.03-3.87 0.02-5.64l-29.19-50.7c-1.01-1.78-2.85-2.84-4.9-2.84z" fill="#424242"/></g><path d="M64,92h29.18c2.04,0,3.31-2.2,2.3-3.97L66.3,37.34c-1.02-1.78-3.59-1.78-4.61,0L32.52,88.03 C31.51,89.8,32.78,92,34.82,92H64z" fill="#FAFAFA"/></svg>

<svg width="128" height="128" style="enable-background:new 0 0 128 128;" xmlns="http://www.w3.org/2000/svg" xmlns:xlink="http://www.w3.org/1999/xlink">
  <g>
    <linearGradient id="SVGID_1_" gradientUnits="userSpaceOnUse" x1="64" x2="64" y1="4.25" y2="123.9133">
      <stop offset="0" style="stop-color:#FFAB40"/>
      <stop offset="1" style="stop-color:#FF6D00"/>
    </linearGradient>
    <path d="M116,124H12c-4.42,0-8-3.58-8-8V12c0-4.42,3.58-8,8-8h104c4.42,0,8,3.58,8,8v104 C124,120.42,120.42,124,116,124z" style="fill:url(#SVGID_1_);"/>
    <g style="opacity:0.2;">
      <path d="M116,7c2.76,0,5,2.24,5,5v104c0,2.76-2.24,5-5,5H12c-2.76,0-5-2.24-5-5V12c0-2.76,2.24-5,5-5H116 M116,4H12c-4.42,0-8,3.58-8,8v104c0,4.42,3.58,8,8,8h104c4.42,0,8-3.58,8-8V12C124,7.58,120.42,4,116,4L116,4z" style="fill:#424242;"/>
    </g>
    <g style="opacity:0.2;">
      <path d="M64,36c0.9,0,1.79,0.45,2.3,1.34l29.18,50.69c1.01,1.77-0.27,3.97-2.3,3.97H64H34.82 c-2.04,0-3.31-2.2-2.3-3.97L61.7,37.34C62.21,36.45,63.1,36,64,36 M64,33c-2.05,0-3.89,1.06-4.91,2.85L29.92,86.53 c-1.02,1.78-1.01,3.89,0.01,5.65c1.02,1.76,2.85,2.82,4.89,2.82H64h29.18c2.04,0,3.87-1.05,4.89-2.82 c1.02-1.76,1.03-3.87,0.02-5.64L68.9,35.84C67.89,34.06,66.05,33,64,33L64,33z" style="fill:#424242;"/>
    </g>
    <path d="M64,92h29.18c2.04,0,3.31-2.2,2.3-3.97L66.3,37.34c-1.02-1.78-3.59-1.78-4.61,0L32.52,88.03 C31.51,89.8,32.78,92,34.82,92H64z" style="fill:#FAFAFA;"/>
  </g>
</svg>
